X: 39172
T: Swilly
R: reel
M: 4/4
K: Dmajor
|:D2FA dcde|fdfg fdAF|~E3F GFGA|BGcA dBAG|
(3FFF EF DEFG|ADFA dFAd|fdge agec|dBAF D2D2:|
|:A3c B3d|cA{B}cd ea^ga|beef e2ab|c'e (3eee fece|f3a efec|
dcBA Beea|1 f^gaf eaae|cBBA BdcB:|2 f^gaf ecAF|EAAF G2FE||

